images/cat-energy-tablet-desktop.svg

<svg width="101" height="19" viewBox="0 0 101 19" fill="none" xmlns="http://www.w3.org/2000/svg">
<path d="M1.21843 16.4823C0.334911 15.2067 -0.0875384 13.6807 0.0177371 12.1453V5.87786C-0.0937138 4.33106 0.32235 2.7917 1.20127 1.49904C1.99601 0.501827 3.35393 0.00600724 5.27503 0.0115783C7.19613 0.0171493 8.49687 0.454474 9.17726 1.32355C10.0069 2.40053 10.4117 3.73214 10.3179 5.07563V6.54638H6.76731V4.95028C6.76252 4.53032 6.72526 4.11131 6.65582 3.69681C6.61289 3.39673 6.47149 3.11825 6.25273 2.90293C6.11769 2.79009 5.96091 2.70463 5.79156 2.65154C5.62221 2.59845 5.44369 2.5788 5.26645 2.59374C5.01191 2.55673 4.75185 2.59704 4.52166 2.70918C4.29147 2.82133 4.10233 2.99986 3.98 3.22048C3.7545 3.80734 3.65525 4.43311 3.68841 5.05892V13.0143C3.64928 13.6443 3.7639 14.2743 4.02288 14.8528C4.14662 15.0614 4.33024 15.2304 4.55117 15.3387C4.7721 15.4471 5.02071 15.4902 5.26645 15.4628C5.50792 15.4961 5.75401 15.4542 5.96962 15.3431C6.18523 15.2321 6.35934 15.0576 6.46714 14.8444C6.67459 14.2565 6.76483 13.6353 6.733 13.0143V11.343H10.2836V12.7887C10.3881 14.152 10.0164 15.5097 9.22872 16.6411C8.474 17.5603 7.1704 18.0115 5.31791 18.0115C3.46542 18.0115 2.01602 17.5101 1.21843 16.4823Z" fill="#111111"/>
<path d="M15.1556 0.253918H19.2208L22.6513 17.8026H19.2722L18.6633 13.9252H15.816L15.1298 17.7775H11.6993L15.1556 0.253918ZM18.2859 11.7191L17.2053 4.66616L16.1333 11.7191H18.2859Z" fill="#111111"/>
<path d="M25.2847 2.89458H22.506V0.253918H31.6998V2.89458H28.9554V17.7775H25.2762L25.2847 2.89458Z" fill="#111111"/>
<path d="M38.9134 0.253918H45.8859V2.07564H41.4262V7.86671H45.0454V9.59651H41.4262V16.0227H45.9288V17.7775H38.9134V0.253918Z" fill="#444444"/>
<path d="M47.9533 0.253918H49.6685L54.8143 11.8946V0.253918H56.907V17.8026H55.3032L50.1574 5.83608V17.7775H48.0305L47.9533 0.253918Z" fill="#444444"/>
<path d="M59.6777 0.253918H66.6417V2.07564H62.182V7.86671H65.8355V9.59651H62.2163V16.0227H66.6932V17.7775H59.6777V0.253918Z" fill="#444444"/>
<path d="M68.709 0.253917H72.3282C73.7545 0.142088 75.1749 0.53031 76.3334 1.34862C77.191 2.07564 77.6112 3.26226 77.6112 4.9085C77.6112 7.13691 76.8708 8.49902 75.39 8.99484L77.9629 17.7775H75.5272L73.1687 9.55473H71.2219V17.7775H68.709V0.253917ZM72.1395 7.77479C72.9658 7.85268 73.7919 7.62608 74.4551 7.13969C74.7247 6.8289 74.9261 6.46767 75.047 6.07822C75.168 5.68877 75.2059 5.27933 75.1584 4.87507C75.1756 4.30813 75.0915 3.74259 74.9097 3.20377C74.836 3.00509 74.7221 2.82285 74.5747 2.66783C74.4274 2.51281 74.2497 2.38816 74.0521 2.30127C73.4953 2.0787 72.8949 1.97882 72.2939 2.00879H71.1876V7.80821L72.1395 7.77479Z" fill="#444444"/>
<path d="M80.9909 16.4823C80.1711 15.1341 79.7913 13.5749 79.9017 12.0115V6.16198C79.8721 5.03315 80.0167 3.90639 80.3305 2.81937C80.5782 2.00215 81.1046 1.29172 81.8228 0.805451C82.6899 0.296326 83.6935 0.0518425 84.7044 0.103503C85.3584 0.0429082 86.018 0.122193 86.6372 0.335814C87.2564 0.549435 87.8203 0.892239 88.2894 1.34027C89.1122 2.46342 89.501 3.83385 89.3871 5.20934V5.86115H87.0286V5.31797C87.0447 4.66831 86.993 4.01873 86.8743 3.37926C86.7961 2.96943 86.5637 2.60284 86.2225 2.35141C85.7772 2.0954 85.2632 1.976 84.7473 2.00879C84.1871 1.96209 83.6303 2.12996 83.195 2.47676C82.8393 2.8056 82.6069 3.24098 82.5346 3.71352C82.426 4.40187 82.3772 5.09794 82.3888 5.79429V12.304C82.3207 13.2932 82.4941 14.2841 82.8948 15.1954C83.1276 15.4756 83.4229 15.7003 83.7584 15.8523C84.0939 16.0043 84.4606 16.0795 84.8305 16.0723C85.2005 16.065 85.5638 15.9755 85.8927 15.8105C86.2216 15.6454 86.5075 15.4093 86.7285 15.1202C87.1418 14.1563 87.3208 13.1125 87.2516 12.07V10.8333H84.9703V9.10348H89.5158V17.7775H87.9635L87.7147 15.7636C87.5182 16.4327 87.0951 17.0173 86.5143 17.4224C85.9335 17.8275 85.2292 18.0292 84.5158 17.9948C83.845 18.0524 83.1702 17.944 82.554 17.6796C81.9378 17.4152 81.4001 17.0033 80.9909 16.4823Z" fill="#444444"/>
<path d="M94.7307 11.5937L90.8456 0.253918H93.1784L95.9314 8.71072L98.6415 0.253918H101L97.1406 11.5937V17.7775H94.7393L94.7307 11.5937Z" fill="#444444"/>
</svg>

<svg viewBox="0 0 101 19" fill="none" xmlns="http://www.w3.org/2000/svg"><path d="M1.22 16.48a6.8 6.8 0 0 1-1.2-4.33v-6.27a6.9 6.9 0 0 1 1.18-4.38c.8-1 2.15-1.5 4.08-1.49 1.92 0 3.22.44 3.9 1.31a5.51 5.51 0 0 1 1.14 3.76v1.47h-3.55v-1.6c0-.42-.04-.84-.11-1.25a1.4 1.4 0 0 0-.4-.8 1.35 1.35 0 0 0-1-.3c-.25-.04-.5 0-.74.1-.23.12-.42.3-.54.52a4.46 4.46 0 0 0-.3 1.84v7.95a3.9 3.9 0 0 0 .34 1.84c.13.21.31.38.53.49.22.1.47.15.72.12.24.04.48 0 .7-.12.22-.1.39-.28.5-.5.2-.58.3-1.2.26-1.83v-1.67h3.55v1.45a5.94 5.94 0 0 1-1.05 3.85c-.76.92-2.06 1.37-3.91 1.37s-3.3-.5-4.1-1.53Zm13.94-16.23h4.06l3.43 17.55h-3.38l-.6-3.87h-2.85l-.69 3.85h-3.43l3.46-17.53Zm3.13 11.47-1.08-7.05-1.08 7.05h2.16Zm6.99-8.82h-2.77v-2.65h9.19v2.64h-2.74v14.89h-3.68v-14.89Z" fill="#111"/><path d="M38.91.25h6.98v1.83h-4.46v5.79h3.62v1.73h-3.62v6.42h4.5v1.76h-7.02v-17.53Zm9.04 0h1.72l5.14 11.64v-11.64h2.1v17.55h-1.6l-5.15-11.96v11.94h-2.13l-.08-17.53Zm11.73 0h6.96v1.83h-4.46v5.79h3.66v1.73h-3.62v6.42h4.47v1.76h-7.01v-17.53Zm9.02 0h3.63a6.12 6.12 0 0 1 4 1.1c.86.73 1.28 1.91 1.28 3.56 0 2.23-.74 3.59-2.22 4.08l2.57 8.79h-2.43l-2.36-8.23h-1.95v8.23h-2.51v-17.53Zm3.44 7.52c.83.08 1.65-.14 2.32-.63a2.96 2.96 0 0 0 .7-2.26 4.77 4.77 0 0 0-.25-1.68 1.57 1.57 0 0 0-.86-.9 4.18 4.18 0 0 0-1.76-.3h-1.1v5.8l.95-.03Zm8.86 8.71a7.57 7.57 0 0 1-1.1-4.47v-5.85a11 11 0 0 1 .43-3.34c.25-.82.77-1.53 1.5-2.01a5.05 5.05 0 0 1 2.87-.7 4.62 4.62 0 0 1 3.59 1.23 5.74 5.74 0 0 1 1.1 3.87v.65h-2.36v-.54c.01-.65-.04-1.3-.16-1.94a1.67 1.67 0 0 0-.65-1.03 2.63 2.63 0 0 0-1.47-.34 2.2 2.2 0 0 0-1.56.47 2.2 2.2 0 0 0-.66 1.23c-.1.7-.15 1.39-.14 2.08v6.51c-.07 1 .1 1.98.5 2.9a2.42 2.42 0 0 0 1.94.87 2.48 2.48 0 0 0 1.9-.95c.41-.96.6-2 .52-3.05v-1.24h-2.28v-1.73h4.55v8.68h-1.56l-.25-2.02c-.2.67-.61 1.26-1.2 1.66-.58.4-1.28.6-2 .57a4.1 4.1 0 0 1-3.52-1.5Zm13.73-4.88-3.88-11.35h2.33l2.75 8.46 2.71-8.46h2.36l-3.86 11.34v6.19h-2.4v-6.19Z" fill="#444"/></svg>
